X: 313
T: Wangxiang wobin
L: 1/8
M: 2/4
K: Bb
f A c c [I:setbarnb 1]| 
c f d f | 
c d/ c/ B c | 
d c/ B/A2 | 
F> GB2 | 
c d c B | 
c> F B G | 
F4 |]

@@@ Tune index: 9187
